X:79
T:By The Marks On The Palms Of His Hands
F:http://www.vwml.org/record/FK/5/79
Z:Transcribed by Alice Baillie, July 2016
M:6/8
L:1/8
K:Em
E/F/ | GAB dBB/A/ | GAF E2 E/F/ | GAB dee/d/ | Acd/A/ B2 B/d/ | ee/f/g/e/ fdB | 
ccB/A/ B2 A/G/ | AGB/d/ eBB/A/ | GAF E2 ||

